X:1
T:Lullaby For Rory
C:Finn Mac Ginty
R:waltz
I:abc2nwc
M:3/4
L:1/8
K:D
[Q:1/4=130]F2G2|"D"A4F2|A4d2|"G"c4B2|"D"A4F2|A4A2|"A7"G2F2E2|"D"D6-|D2:|
|:D2A2|"Em"G4E2|G4A2|"D"F4D2|F4A2|"A7"A4A2|G2F2E2|"D"D6-|D2:|
